icons/logo/logo_asia-alliance-sign-box_m_color.svg

<svg xmlns="http://www.w3.org/2000/svg" width="24" height="24" viewBox="0 0 24 24" fill="none"><rect width="24" height="24" fill="none"/>
<path d="M21.9995 12.0087C21.9995 17.472 17.6112 21.9109 12.1636 21.9987C6.55015 22.0888 1.92563 17.4808 2.00091 11.872C2.0542 7.90466 4.42113 4.4967 7.81493 2.93215H7.81603C7.90448 2.92996 7.9847 2.93764 8.05503 2.95246C8.05723 2.95246 8.12426 2.93105 8.1259 2.93215C8.1259 2.93215 8.04239 3.05622 8.07096 3.04194C8.18085 2.98705 8.26161 3.02712 8.29568 3.05457C8.35337 3.09959 8.52589 3.10123 8.5105 3.09684C8.49072 3.09135 8.38798 3.18248 8.29073 3.20663C8.21601 3.2253 8.18085 3.37132 8.07096 3.53601C8.05173 3.56511 7.95448 3.65623 7.92317 3.67161C4.83704 5.18016 2.5767 8.38226 2.5767 12.0449C2.5767 17.169 6.89849 21.4871 12.0268 21.4871C17.1552 21.4871 21.422 17.169 21.422 12.0449C21.422 6.92092 17.2107 2.70378 12.0823 2.70378C12.0411 2.70378 11.8483 2.60168 11.8076 2.60223H11.6428C11.6115 2.60223 11.478 2.49243 11.478 2.49243C11.4444 2.49243 11.6082 2.56709 11.5878 2.53909C11.5664 2.50945 11.3351 2.38264 11.3681 2.38264C11.5329 2.38264 11.5329 2.27285 11.423 2.21795C11.3247 2.16909 11.7252 2.40185 11.7252 2.34696C11.7252 2.29206 11.7202 2.2185 11.7774 2.20038C11.8351 2.18227 11.6428 2.10816 11.5878 2.10816C11.5757 2.10816 11.6955 2.11035 11.7527 2.05326C11.7543 2.05162 11.756 2.04997 11.7576 2.04832C11.7961 2.00935 11.8516 1.99233 11.9054 2.00331C11.9389 2.01044 11.9724 2.01703 12.0005 2.01703C17.5233 2.01703 22 6.48998 22 12.0082L21.9995 12.0087Z" fill="url(#paint0_linear_4925_51)"/>
<path d="M9.20048 10.8092H9.6175C9.6175 10.8092 9.71859 11.4147 10.1999 11.4142C10.6812 11.4136 14.8019 11.5778 14.8019 11.5778H9.98506C9.98506 11.5778 9.31367 11.5229 9.20103 10.8092H9.20048Z" fill="url(#paint1_linear_4925_51)"/>
<path d="M4.0881 11.468C4.0881 11.468 3.7035 11.2484 3.7035 10.919C3.7035 10.5896 3.7035 10.3805 4.0881 10.2383C4.4727 10.0961 8.26373 8.94274 9.08787 8.94274C9.91201 8.94274 11.2856 8.83295 12.2196 9.05253C13.1536 9.27212 13.9228 9.71129 14.1975 9.82108C14.4722 9.93087 14.4173 10.1505 15.3513 10.1505C16.2853 10.1505 17.2743 10.3151 17.8237 10.4249C18.3732 10.5347 18.9775 10.8092 19.2522 10.9739C19.527 11.1386 20.1313 11.5778 20.1863 11.7973H19.633C19.633 11.7973 18.9226 11.1386 18.6479 11.0288C18.3732 10.919 17.9886 10.5896 17.1644 10.4798C16.3403 10.37 15.5711 10.3151 14.9667 10.3151C14.3624 10.3151 12.9888 10.2603 12.9888 10.2603C12.9888 10.2603 12.1778 10.2784 12.0064 10.0494C11.835 9.82053 12.0548 9.60149 12.2196 9.60149C12.3844 9.60149 12.6042 9.87598 12.769 9.93087C12.9339 9.98577 13.3184 10.1505 13.6481 10.0956C13.0987 9.71129 12.8789 9.65639 12.8789 9.65639C12.8789 9.65639 12.1114 9.27761 11.4784 9.24741C10.8455 9.21722 9.30764 9.24741 9.30764 9.24741C9.30764 9.24741 7.60442 9.43681 7.54948 9.5466C7.49454 9.65639 7.44344 9.78869 7.93627 9.85951C8.42911 9.93032 9.20105 9.94405 9.20105 9.94405C9.20105 9.94405 8.92304 10.0291 8.01649 10.0072C7.10994 9.98522 4.14304 9.87598 4.0881 11.468Z" fill="url(#paint2_linear_4925_51)"/>
<path d="M7.98901 11.6327C7.65166 11.1935 7.11432 10.919 6.53303 10.919C5.84076 10.919 5.44627 11.0431 5.132 11.6327C5.38308 10.9245 5.78856 10.6994 6.50556 10.6994C7.27476 10.6994 7.69232 11.07 7.98901 11.6327Z" fill="url(#paint3_linear_4925_51)"/>
<path d="M18.538 11.6327C18.2006 11.1935 17.6633 10.919 17.082 10.919C16.3897 10.919 15.9952 11.0431 15.681 11.6327C15.9321 10.9245 16.3375 10.6994 17.0545 10.6994C17.8237 10.6994 18.2413 11.07 18.538 11.6327Z" fill="#EDE3C7"/>
<path d="M7.27476 10.1505L13.9228 10.5896H8.47086C8.47086 10.5896 8.70326 11.1935 8.42855 11.468C8.26372 10.8092 8.48349 10.6445 7.27476 10.1505Z" fill="url(#paint4_linear_4925_51)"/>
<path d="M5.38468 14.2819C5.45116 14.4444 5.53468 14.5054 5.67643 14.5054V14.5718C5.46545 14.5619 5.25886 14.5619 5.05668 14.5718V14.5054C5.19678 14.5054 5.22535 14.4472 5.15832 14.2819L4.98965 13.8675H4.24517L4.08254 14.2819C4.01606 14.4472 4.04408 14.5054 4.18419 14.5054V14.5718C4.02156 14.5646 3.85288 14.5646 3.67872 14.5718V14.5054C3.82157 14.5054 3.90947 14.4444 3.97156 14.2819L4.60724 12.6543H4.72317L5.38413 14.2819H5.38468ZM4.27924 13.7758H4.95173L4.61054 12.9298L4.27924 13.7758ZM6.74451 13.5496H6.67803C6.68243 13.3646 6.57034 13.2598 6.36815 13.2598C6.19838 13.2598 6.09344 13.3333 6.09344 13.4579C6.09344 13.5639 6.1797 13.6545 6.35387 13.7297C6.35826 13.7313 6.38079 13.7412 6.42475 13.7582C6.4687 13.7763 6.49672 13.7895 6.51265 13.7966C6.52694 13.8038 6.55386 13.8181 6.59177 13.8389C6.63023 13.8603 6.65825 13.8812 6.67693 13.8999C6.711 13.9394 6.76759 13.9959 6.78572 14.0684C6.79561 14.1035 6.8 14.1419 6.8 14.1831C6.8 14.3088 6.75165 14.4082 6.6555 14.4801C6.55935 14.5537 6.42639 14.5904 6.25772 14.5904C6.11597 14.5904 6.00553 14.5663 5.92806 14.5185C5.91268 14.4208 5.90554 14.3077 5.90389 14.1793H5.97202C5.96762 14.26 5.99454 14.3319 6.05278 14.3928C6.11102 14.4538 6.19563 14.4845 6.31046 14.4845C6.49892 14.4845 6.62034 14.3857 6.62034 14.2342C6.62034 14.1721 6.59891 14.1238 6.55826 14.0898C6.51705 14.0574 6.43628 14.0135 6.31596 13.9597C6.18739 13.9004 6.0896 13.8395 6.02311 13.7758C5.95663 13.7121 5.92257 13.6287 5.92257 13.5255C5.92257 13.4096 5.96652 13.319 6.05278 13.2526C6.13904 13.1862 6.25662 13.1538 6.40387 13.1538C6.50441 13.1538 6.6132 13.1708 6.73352 13.206C6.74506 13.3207 6.74891 13.4349 6.74506 13.5513L6.74451 13.5496ZM7.02472 14.4971C7.18735 14.4971 7.25108 14.4291 7.25108 14.2386V13.5359C7.25108 13.4398 7.23405 13.3816 7.189 13.3591C7.16482 13.3476 7.14669 13.341 7.13076 13.3394C7.11537 13.3377 7.08955 13.335 7.05439 13.3322V13.2658C7.18625 13.2674 7.31921 13.2405 7.45492 13.1824V14.2386C7.45492 14.4269 7.517 14.4971 7.68293 14.4971V14.5723C7.46371 14.5652 7.24394 14.5652 7.02472 14.5723V14.4971ZM7.3335 12.8837C7.28844 12.8837 7.25163 12.8711 7.22471 12.8453C7.19614 12.8211 7.1824 12.7871 7.1824 12.7448C7.1824 12.6559 7.24724 12.5933 7.33404 12.5933C7.41481 12.5933 7.48953 12.6499 7.48953 12.7388C7.48953 12.7827 7.47525 12.8178 7.44558 12.8436C7.41591 12.8705 7.37745 12.8832 7.3335 12.8832V12.8837ZM9.09825 14.4126C9.03616 14.5273 8.951 14.5839 8.84496 14.5839C8.79002 14.5839 8.74003 14.5657 8.69937 14.529C8.65871 14.4922 8.63289 14.4499 8.623 14.4016V14.3961C8.47575 14.518 8.34004 14.5784 8.21697 14.5784C8.11917 14.5784 8.03182 14.546 7.9549 14.4823C7.87853 14.4186 7.84007 14.3352 7.84007 14.2303C7.84007 14.0607 7.95599 13.9476 8.18675 13.8894C8.27576 13.8669 8.36532 13.851 8.48949 13.84C8.55047 13.8345 8.58838 13.8301 8.60432 13.8285V13.6803C8.60432 13.5727 8.59717 13.5062 8.56915 13.4146C8.53948 13.3229 8.46586 13.2691 8.35268 13.2691C8.30433 13.2691 8.25928 13.2773 8.21697 13.2932C8.17467 13.3103 8.15489 13.3256 8.15599 13.3399C8.15599 13.3514 8.23675 13.3838 8.23126 13.4782C8.23126 13.5617 8.18895 13.6056 8.10379 13.6111C8.0417 13.6155 7.9961 13.5968 7.96643 13.5589C7.93676 13.5211 7.92138 13.4782 7.92138 13.4316C7.92138 13.341 7.97358 13.2729 8.07852 13.2279C8.18181 13.1829 8.28785 13.1598 8.39389 13.1598C8.52135 13.1598 8.62574 13.1966 8.70816 13.2718C8.79002 13.347 8.83123 13.4513 8.83123 13.5831V14.2435C8.83123 14.4713 8.912 14.5191 9.07737 14.3906L9.0988 14.4131L9.09825 14.4126ZM8.60432 14.3209V13.9037C8.36532 13.9575 8.24334 13.9855 8.24225 13.9871C8.11917 14.0294 8.05709 14.1046 8.05709 14.2133C8.05709 14.277 8.07962 14.3319 8.12632 14.3758C8.17302 14.4197 8.23126 14.4422 8.30323 14.4422C8.41202 14.4422 8.51256 14.4011 8.60487 14.3204L8.60432 14.3209ZM11.0685 14.2825C11.135 14.445 11.2185 14.5059 11.3602 14.5059V14.5723C11.1493 14.5625 10.9427 14.5625 10.7405 14.5723V14.5059C10.8806 14.5059 10.9092 14.4477 10.8421 14.2825L10.6735 13.868H9.92898L9.76635 14.2825C9.69987 14.4477 9.72789 14.5059 9.868 14.5059V14.5723C9.70537 14.5652 9.53669 14.5652 9.36252 14.5723V14.5059C9.50538 14.5059 9.59328 14.445 9.65537 14.2825L10.2911 12.6548H10.407L11.0679 14.2825H11.0685ZM9.96305 13.7763H10.6355L10.2944 12.9304L9.96305 13.7763ZM11.5921 14.4977C11.7547 14.4977 11.8174 14.4296 11.8174 14.2391V12.7542C11.8174 12.6581 11.8003 12.5999 11.7553 12.5774C11.7311 12.5659 11.713 12.5593 11.697 12.5576C11.6817 12.556 11.6558 12.5532 11.6207 12.5505V12.4841C11.7635 12.4885 11.9036 12.4599 12.0382 12.4006V14.2391C12.0382 14.4274 12.0992 14.4977 12.2646 14.4977V14.5729C12.041 14.563 11.8174 14.563 11.5921 14.5729V14.4977ZM12.5717 14.4977C12.7343 14.4977 12.797 14.4296 12.797 14.2391V12.7542C12.797 12.6581 12.78 12.5999 12.7349 12.5774C12.7107 12.5659 12.6926 12.5593 12.6767 12.5576C12.6613 12.556 12.6355 12.5532 12.6003 12.5505V12.4841C12.7431 12.4885 12.8832 12.4599 13.0179 12.4006V14.2391C13.0179 14.4274 13.0788 14.4977 13.2442 14.4977V14.5729C13.0206 14.563 12.797 14.563 12.5717 14.5729V14.4977ZM13.4832 14.4977C13.6458 14.4977 13.7096 14.4296 13.7096 14.2391V13.5364C13.7096 13.4404 13.6925 13.3822 13.6475 13.3597C13.6233 13.3481 13.6052 13.3416 13.5893 13.3399C13.5739 13.3383 13.548 13.3355 13.5129 13.3328V13.2663C13.6447 13.268 13.7777 13.2411 13.9134 13.1829V14.2391C13.9134 14.4274 13.9755 14.4977 14.1414 14.4977V14.5729C13.9222 14.5657 13.7024 14.5657 13.4832 14.5729V14.4977ZM13.792 12.8843C13.7469 12.8843 13.7101 12.8716 13.6832 12.8458C13.6546 12.8217 13.6409 12.7877 13.6409 12.7454C13.6409 12.6564 13.7057 12.5939 13.7925 12.5939C13.8733 12.5939 13.948 12.6504 13.948 12.7393C13.948 12.7833 13.9337 12.8184 13.9041 12.8442C13.8744 12.8711 13.8359 12.8837 13.792 12.8837V12.8843ZM15.5568 14.4131C15.4947 14.5279 15.4095 14.5844 15.3035 14.5844C15.2485 14.5844 15.1985 14.5663 15.1579 14.5295C15.1172 14.4927 15.0914 14.4505 15.0815 14.4022V14.3967C14.9343 14.5185 14.7985 14.5789 14.6755 14.5789C14.5777 14.5789 14.4903 14.5465 14.4134 14.4829C14.337 14.4192 14.2986 14.3357 14.2986 14.2309C14.2986 14.0612 14.4145 13.9482 14.6453 13.89C14.7343 13.8675 14.8238 13.8515 14.948 13.8406C15.009 13.8351 15.0469 13.8307 15.0628 13.829V13.6808C15.0628 13.5732 15.0557 13.5068 15.0277 13.4151C14.998 13.3234 14.9244 13.2696 14.8112 13.2696C14.7628 13.2696 14.7178 13.2779 14.6755 13.2938C14.6332 13.3108 14.6134 13.3262 14.6145 13.3405C14.6145 13.352 14.6953 13.3844 14.6898 13.4788C14.6898 13.5622 14.6474 13.6062 14.5623 13.6116C14.5002 13.616 14.4546 13.5974 14.4249 13.5595C14.3953 13.5216 14.3799 13.4788 14.3799 13.4321C14.3799 13.3416 14.4321 13.2735 14.537 13.2285C14.6403 13.1835 14.7463 13.1604 14.8524 13.1604C14.9799 13.1604 15.0842 13.1972 15.1667 13.2724C15.2485 13.3476 15.2897 13.4519 15.2897 13.5836V14.2441C15.2897 14.4719 15.3705 14.5196 15.5359 14.3912L15.5573 14.4137L15.5568 14.4131ZM15.0628 14.3215V13.9042C14.8238 13.958 14.7018 13.986 14.7007 13.9877C14.5777 14.03 14.5156 14.1052 14.5156 14.2139C14.5156 14.2775 14.5381 14.3324 14.5848 14.3764C14.6315 14.4203 14.6898 14.4428 14.7617 14.4428C14.8705 14.4428 14.9711 14.4016 15.0634 14.3209L15.0628 14.3215ZM17.0089 14.2397C17.0089 14.428 17.071 14.4982 17.2369 14.4982V14.5734C17.0188 14.5663 16.7996 14.5663 16.5787 14.5734V14.4982C16.7413 14.4982 16.805 14.4301 16.805 14.2397V13.739C16.805 13.7094 16.8034 13.6709 16.7996 13.6232C16.7952 13.5749 16.7913 13.5397 16.7842 13.5172C16.777 13.4958 16.7671 13.4689 16.7528 13.4393C16.7089 13.3558 16.6369 13.3333 16.5067 13.3245C16.3216 13.3245 16.1771 13.3997 16.0749 13.5507V14.2397C16.0749 14.428 16.1386 14.4982 16.304 14.4982V14.5734C16.0858 14.5663 15.8666 14.5663 15.6458 14.5734V14.4982C15.8084 14.4982 15.8721 14.4301 15.8721 14.2397V13.537C15.8721 13.4409 15.854 13.3827 15.8084 13.3602C15.7842 13.3487 15.7661 13.3421 15.7501 13.3405C15.7348 13.3388 15.7089 13.3361 15.6738 13.3333V13.2669C15.8056 13.2685 15.9386 13.2416 16.0743 13.1835V13.4409C16.2342 13.2559 16.4199 13.162 16.6276 13.1637C16.7748 13.1566 16.8638 13.212 16.9232 13.2713C16.9627 13.3081 16.9814 13.386 16.994 13.4338C17.0012 13.4579 17.0056 13.492 17.0083 13.5326C17.01 13.5738 17.0111 13.6073 17.0111 13.6314C17.0111 13.6567 17.0111 13.6923 17.0094 13.7374C17.0078 13.7824 17.0078 13.8164 17.0078 13.8378V14.2397H17.0089ZM18.7269 14.3247C18.594 14.5043 18.4028 14.5932 18.155 14.5932C17.9369 14.5932 17.7561 14.5323 17.6116 14.4109C17.466 14.2891 17.3935 14.1211 17.3935 13.9075C17.3935 13.6825 17.4715 13.5002 17.627 13.3602C17.7825 13.2202 17.9665 13.1511 18.1792 13.1511C18.3588 13.1511 18.5258 13.1961 18.683 13.2883C18.7 13.4201 18.7055 13.571 18.7 13.7423H18.6335C18.6335 13.5683 18.5896 13.4426 18.5033 13.3619C18.4171 13.2812 18.3039 13.2416 18.1649 13.2416C17.9907 13.2416 17.8605 13.2965 17.7742 13.4069C17.6863 13.5189 17.6424 13.6616 17.6424 13.8356C17.6424 14.0195 17.6907 14.1677 17.7852 14.2825C17.8803 14.3972 18.0215 14.4549 18.2127 14.4549C18.4039 14.4549 18.5522 14.3912 18.6742 14.2638L18.7264 14.3247H18.7269ZM20.2104 14.2495C20.1609 14.3527 20.0829 14.4334 19.9769 14.4944C19.8708 14.5553 19.7516 14.585 19.6231 14.585C19.4291 14.585 19.272 14.5202 19.1505 14.3884C19.0286 14.2567 18.9681 14.0914 18.9681 13.8905C18.9681 13.6896 19.0319 13.5128 19.1593 13.3717C19.2868 13.2318 19.4483 13.1609 19.6434 13.1609C19.7906 13.1609 19.912 13.2021 20.0071 13.2856C20.1021 13.369 20.1554 13.4804 20.1659 13.6237L19.195 13.8444C19.1994 14.0069 19.2445 14.1441 19.3335 14.2561C19.4225 14.3681 19.5456 14.4247 19.7044 14.4247C19.7934 14.4247 19.8813 14.4065 19.9692 14.3709C20.0554 14.3357 20.1208 14.2819 20.1631 14.2095L20.2115 14.2506L20.2104 14.2495ZM19.3214 13.4052C19.2461 13.5112 19.2038 13.627 19.1939 13.7505L19.9357 13.5864C19.9203 13.4947 19.8846 13.414 19.828 13.3476C19.7714 13.2812 19.6978 13.2471 19.6071 13.2471C19.4912 13.2471 19.3961 13.2993 19.3214 13.4058V13.4052Z" fill="url(#paint5_linear_4925_51)"/>
<path d="M5.10449 15.802C8.74279 15.7965 14.3519 15.7597 17.9303 15.7921C17.9303 15.7976 18.7967 15.7921 18.7852 15.8075L17.9303 15.8174C14.3783 15.8443 8.70213 15.824 5.10449 15.802Z" fill="#EDDCAE"/>
<defs>
<linearGradient id="paint0_linear_4925_51" x1="2.00036" y1="11.9999" x2="21.9995" y2="11.9999" gradientUnits="userSpaceOnUse">
<stop stop-color="#EDE3C7"/>
<stop offset="0.2" stop-color="#B07B39"/>
<stop offset="0.5" stop-color="#EDE3C7"/>
<stop offset="0.74" stop-color="#B07B39"/>
<stop offset="0.96" stop-color="#EDE3C7"/>
</linearGradient>
<linearGradient id="paint1_linear_4925_51" x1="2" y1="12" x2="22" y2="12" gradientUnits="userSpaceOnUse">
<stop stop-color="#EDE3C7"/>
<stop offset="0.98" stop-color="#B07B39"/>
</linearGradient>
<linearGradient id="paint2_linear_4925_51" x1="2" y1="12" x2="22" y2="12" gradientUnits="userSpaceOnUse">
<stop stop-color="#B07B39"/>
<stop offset="0.26" stop-color="#EDE3C7"/>
<stop offset="0.57" stop-color="#B07B39"/>
<stop offset="0.8" stop-color="#EDE3C7"/>
<stop offset="1" stop-color="#B07B39"/>
</linearGradient>
<linearGradient id="paint3_linear_4925_51" x1="2" y1="12" x2="26.1808" y2="12" gradientUnits="userSpaceOnUse">
<stop stop-color="#EDE3C7"/>
<stop offset="1" stop-color="#B07B39"/>
</linearGradient>
<linearGradient id="paint4_linear_4925_51" x1="2" y1="12" x2="22" y2="12" gradientUnits="userSpaceOnUse">
<stop stop-color="#EDE3C7"/>
<stop offset="0.98" stop-color="#B07B39"/>
</linearGradient>
<linearGradient id="paint5_linear_4925_51" x1="2.00066" y1="11.985" x2="21.9987" y2="11.985" gradientUnits="userSpaceOnUse">
<stop stop-color="#B07B39"/>
<stop offset="0.26" stop-color="#EDE3C7"/>
<stop offset="0.57" stop-color="#B07B39"/>
<stop offset="0.8" stop-color="#EDE3C7"/>
<stop offset="1" stop-color="#B07B39"/>
</linearGradient>
</defs>
</svg>

<svg width="24" height="24" fill="none" xmlns="http://www.w3.org/2000/svg"><path d="M22 12.009c0 5.463-4.389 9.902-9.836 9.99C6.55 22.089 1.926 17.48 2 11.872a9.992 9.992 0 0 1 5.814-8.94h.001c.088-.002.169.006.239.02l.07-.02s-.083.124-.054.11c.11-.055.19-.015.225.013.057.045.23.046.215.042-.02-.006-.123.085-.22.11-.075.018-.11.164-.22.329a.737.737 0 0 1-.148.136c-3.086 1.508-5.346 4.71-5.346 8.373 0 5.124 4.321 9.442 9.45 9.442 5.128 0 9.395-4.318 9.395-9.442 0-5.124-4.211-9.341-9.34-9.341-.04 0-.234-.102-.274-.102h-.165c-.032 0-.165-.11-.165-.11-.034 0 .13.075.11.047-.022-.03-.253-.156-.22-.156.165 0 .165-.11.055-.165-.098-.049.302.184.302.129 0-.055-.005-.128.052-.147.058-.018-.134-.092-.19-.092-.011 0 .108.002.166-.055l.005-.005a.162.162 0 0 1 .147-.045.49.49 0 0 0 .096.014C17.523 2.017 22 6.49 22 12.008z" fill="url(#a)"/><path d="M9.2 10.81h.418s.1.605.582.604c.481 0 4.602.164 4.602.164H9.985s-.671-.055-.784-.769z" fill="url(#b)"/><path d="M4.088 11.468s-.385-.22-.385-.549c0-.33 0-.539.385-.68.385-.143 4.176-1.296 5-1.296.824 0 2.198-.11 3.132.11.934.22 1.703.658 1.977.768.275.11.22.33 1.154.33.934 0 1.923.164 2.473.274a5.17 5.17 0 0 1 1.428.549c.275.165.88.604.934.823h-.553s-.71-.658-.985-.768c-.275-.11-.66-.44-1.484-.55a17.308 17.308 0 0 0-2.197-.164c-.605 0-1.978-.055-1.978-.055s-.811.018-.983-.21c-.171-.23.049-.449.214-.449.164 0 .384.275.549.33.165.055.55.22.88.165-.55-.385-.77-.44-.77-.44s-.768-.378-1.4-.409c-.633-.03-2.171 0-2.171 0s-1.704.19-1.759.3c-.054.11-.106.242.387.313.493.07 1.265.084 1.265.084s-.278.085-1.185.063c-.906-.022-3.873-.131-3.928 1.461z" fill="url(#c)"/><path d="M7.989 11.633a1.84 1.84 0 0 0-1.456-.714c-.692 0-1.087.124-1.401.714.251-.708.657-.934 1.374-.934.769 0 1.186.371 1.483.934z" fill="url(#d)"/><path d="M18.538 11.633a1.84 1.84 0 0 0-1.456-.714c-.692 0-1.087.124-1.401.714.251-.708.656-.934 1.374-.934.769 0 1.186.371 1.483.934z" fill="#EDE3C7"/><path d="m7.275 10.15 6.648.44H8.47s.232.604-.042.878c-.165-.659.054-.823-1.154-1.318z" fill="url(#e)"/><path d="M5.385 14.282c.066.162.15.223.291.223v.067a6.47 6.47 0 0 0-.62 0v-.067c.14 0 .17-.058.102-.223l-.168-.415h-.745l-.162.415c-.067.165-.039.223.101.223v.067a5.915 5.915 0 0 0-.505 0v-.067c.143 0 .23-.06.293-.223l.635-1.628h.116l.661 1.628zm-1.106-.506h.673l-.341-.846-.332.846zm2.466-.226h-.067c.004-.185-.108-.29-.31-.29-.17 0-.275.073-.275.198 0 .106.087.197.26.272l.072.028c.044.018.072.032.088.039l.079.042a.388.388 0 0 1 .085.06c.034.04.09.097.109.17.01.034.014.073.014.114a.351.351 0 0 1-.144.297c-.097.074-.23.11-.398.11a.631.631 0 0 1-.33-.072 2.42 2.42 0 0 1-.024-.339h.068a.277.277 0 0 0 .08.214c.059.06.144.091.258.091.189 0 .31-.098.31-.25a.179.179 0 0 0-.062-.144 1.297 1.297 0 0 0-.242-.13 1.08 1.08 0 0 1-.293-.184.331.331 0 0 1-.1-.25c0-.116.044-.207.13-.273a.563.563 0 0 1 .35-.1c.101 0 .21.018.33.053.012.115.016.229.012.345v-.001zm.28.947c.162 0 .226-.068.226-.258v-.703c0-.096-.017-.154-.062-.177a.185.185 0 0 0-.058-.02 2.483 2.483 0 0 0-.077-.007v-.066a.978.978 0 0 0 .4-.084v1.057c0 .188.063.258.229.258v.075c-.22-.007-.44-.007-.658 0v-.075zm.308-1.613a.151.151 0 0 1-.108-.039.125.125 0 0 1-.043-.1c0-.09.065-.152.152-.152.08 0 .156.057.156.146a.132.132 0 0 1-.044.105.162.162 0 0 1-.112.04zm1.765 1.529c-.062.114-.147.17-.253.17a.234.234 0 0 1-.222-.182v-.005c-.147.122-.283.182-.406.182a.4.4 0 0 1-.262-.096.311.311 0 0 1-.115-.252c0-.17.116-.282.347-.34.089-.023.178-.039.302-.05l.115-.011v-.149a.806.806 0 0 0-.035-.265c-.03-.092-.103-.146-.216-.146a.382.382 0 0 0-.136.024c-.042.017-.062.033-.061.047 0 .011.08.044.075.138 0 .084-.042.128-.127.133-.062.005-.108-.014-.138-.052a.202.202 0 0 1-.045-.127c0-.091.053-.16.158-.204a.787.787 0 0 1 .315-.068c.127 0 .232.037.314.112.082.075.123.18.123.311v.66c0 .228.081.276.246.148l.022.022zm-.494-.092v-.417a13.77 13.77 0 0 0-.362.083c-.123.042-.185.118-.185.226 0 .064.023.119.07.163a.247.247 0 0 0 .176.066.45.45 0 0 0 .302-.122zm2.465-.038c.066.162.15.223.291.223v.066c-.21-.01-.417-.01-.62 0v-.066c.14 0 .17-.058.102-.223l-.168-.415h-.745l-.163.415c-.066.165-.038.223.102.223v.066a5.999 5.999 0 0 0-.505 0v-.066c.142 0 .23-.061.292-.223l.636-1.628h.116l.66 1.628h.002zm-1.106-.507h.673l-.342-.846-.33.846zm1.63.722c.162 0 .224-.068.224-.259v-1.485c0-.096-.017-.154-.062-.177a.188.188 0 0 0-.058-.02l-.076-.007v-.066a.955.955 0 0 0 .417-.083v1.838c0 .188.061.259.227.259v.075a7.617 7.617 0 0 0-.673 0v-.075zm.979 0c.162 0 .225-.068.225-.259v-1.485c0-.096-.017-.154-.062-.177a.189.189 0 0 0-.058-.02l-.077-.007v-.066a.956.956 0 0 0 .418-.083v1.838c0 .188.06.259.226.259v.075a7.617 7.617 0 0 0-.672 0v-.075zm.911 0c.163 0 .227-.068.227-.259v-.703c0-.096-.018-.154-.063-.176a.186.186 0 0 0-.058-.02c-.015-.002-.041-.005-.076-.007v-.067a.974.974 0 0 0 .4-.083v1.056c0 .188.063.259.228.259v.075c-.219-.007-.439-.007-.658 0v-.075zm.309-1.614a.151.151 0 0 1-.109-.038.124.124 0 0 1-.042-.1c0-.09.065-.152.152-.152.08 0 .155.056.155.145 0 .044-.014.08-.044.105a.162.162 0 0 1-.112.04zm1.765 1.53c-.062.114-.148.17-.254.17a.233.233 0 0 1-.222-.182v-.005c-.147.121-.282.182-.405.182a.4.4 0 0 1-.263-.096.311.311 0 0 1-.114-.252c0-.17.116-.283.346-.341.09-.023.179-.039.303-.05l.115-.011v-.148a.807.807 0 0 0-.035-.266c-.03-.092-.104-.145-.217-.145a.382.382 0 0 0-.136.024c-.042.017-.062.032-.06.046 0 .012.08.044.075.139 0 .083-.043.127-.128.133-.062.004-.107-.015-.137-.053a.203.203 0 0 1-.045-.127c0-.09.052-.159.157-.204a.787.787 0 0 1 .315-.068c.128 0 .232.037.315.112.082.076.123.18.123.312v.66c0 .228.08.276.246.147l.021.023zm-.494-.092v-.418c-.24.054-.361.082-.362.084-.123.042-.185.117-.185.226 0 .063.022.118.069.162a.247.247 0 0 0 .177.067.45.45 0 0 0 .301-.122zm1.946-.082c0 .188.062.258.228.258v.075a10.172 10.172 0 0 0-.658 0v-.075c.162 0 .226-.068.226-.258v-.501a1.496 1.496 0 0 0-.02-.222.663.663 0 0 0-.032-.078c-.044-.083-.116-.106-.246-.114a.492.492 0 0 0-.432.226v.689c0 .188.064.258.229.258v.075a10.172 10.172 0 0 0-.658 0v-.075c.162 0 .226-.068.226-.258v-.703c0-.096-.018-.154-.064-.177a.185.185 0 0 0-.058-.02 2.463 2.463 0 0 0-.076-.007v-.066a.978.978 0 0 0 .4-.083v.257c.16-.185.346-.279.554-.277a.368.368 0 0 1 .295.107c.04.037.058.115.071.163a.482.482 0 0 1 .014.099l.003.098c0 .026 0 .061-.002.106l-.001.1v.403zm1.718.085c-.133.18-.324.268-.572.268a.815.815 0 0 1-.543-.182.621.621 0 0 1-.218-.503c0-.226.078-.408.233-.548.155-.14.34-.209.552-.209.18 0 .347.045.504.137.017.132.023.283.017.454h-.066c0-.174-.044-.3-.13-.38a.475.475 0 0 0-.34-.12c-.173 0-.304.054-.39.165a.673.673 0 0 0-.132.429.68.68 0 0 0 .143.447c.095.114.236.172.428.172.19 0 .34-.064.461-.191l.052.06zm1.483-.075a.558.558 0 0 1-.233.244.7.7 0 0 1-.354.091.612.612 0 0 1-.473-.197.703.703 0 0 1-.182-.498c0-.2.064-.377.191-.518a.628.628 0 0 1 .484-.211c.148 0 .269.041.364.125a.475.475 0 0 1 .159.338l-.971.22c.004.163.05.3.139.412a.447.447 0 0 0 .37.169.7.7 0 0 0 .265-.054.385.385 0 0 0 .194-.162l.049.042-.002-.002zm-.889-.845a.682.682 0 0 0-.127.346l.742-.165a.486.486 0 0 0-.108-.238.277.277 0 0 0-.22-.1.336.336 0 0 0-.287.158z" fill="url(#f)"/><path d="M5.104 15.802c3.639-.005 9.248-.042 12.826-.01 0 .006.867 0 .855.015l-.855.01c-3.552.027-9.228.007-12.826-.015z" fill="#EDDCAE"/><defs><linearGradient id="a" x1="2" y1="12" x2="22" y2="12" gradientUnits="userSpaceOnUse"><stop stop-color="#EDE3C7"/><stop offset=".2" stop-color="#B07B39"/><stop offset=".5" stop-color="#EDE3C7"/><stop offset=".74" stop-color="#B07B39"/><stop offset=".96" stop-color="#EDE3C7"/></linearGradient><linearGradient id="b" x1="2" y1="12" x2="22" y2="12" gradientUnits="userSpaceOnUse"><stop stop-color="#EDE3C7"/><stop offset=".98" stop-color="#B07B39"/></linearGradient><linearGradient id="c" x1="2" y1="12" x2="22" y2="12" gradientUnits="userSpaceOnUse"><stop stop-color="#B07B39"/><stop offset=".26" stop-color="#EDE3C7"/><stop offset=".57" stop-color="#B07B39"/><stop offset=".8" stop-color="#EDE3C7"/><stop offset="1" stop-color="#B07B39"/></linearGradient><linearGradient id="d" x1="2" y1="12" x2="26.181" y2="12" gradientUnits="userSpaceOnUse"><stop stop-color="#EDE3C7"/><stop offset="1" stop-color="#B07B39"/></linearGradient><linearGradient id="e" x1="2" y1="12" x2="22" y2="12" gradientUnits="userSpaceOnUse"><stop stop-color="#EDE3C7"/><stop offset=".98" stop-color="#B07B39"/></linearGradient><linearGradient id="f" x1="2.001" y1="11.985" x2="21.999" y2="11.985" gradientUnits="userSpaceOnUse"><stop stop-color="#B07B39"/><stop offset=".26" stop-color="#EDE3C7"/><stop offset=".57" stop-color="#B07B39"/><stop offset=".8" stop-color="#EDE3C7"/><stop offset="1" stop-color="#B07B39"/></linearGradient></defs></svg>
